icons/weapons/grenade.svg

<svg xmlns="http://www.w3.org/2000/svg" xmlns:xlink="http://www.w3.org/1999/xlink" width="128pt" height="132pt" viewBox="0 0 128 132" version="1.1">
<g id="surface1">
<path d="M 110.394531 16.441406 L 100.792969 16.441406 L 105.136719 43.621094 L 60.800781 43.621094 L 62.855469 32.429688 L 50.058594 32.65625 C 50.363281 39.8125 48.917969 45.597656 45.71875 50.015625 C 42.972656 53.820312 38.707031 56.863281 32.917969 59.148438 C 30.785156 67.828125 29.566406 78.105469 29.261719 89.980469 L 28.578125 95.230469 L 26.289062 98.199219 L 23.777344 97.972656 L 21.71875 96.832031 L 21.035156 92.949219 L 21.261719 87.695312 C 21.261719 80.082031 21.871094 70.949219 23.089844 60.289062 L 20.121094 59.378906 L 17.148438 58.691406 C 12.121094 57.015625 8.082031 53.972656 5.035156 49.558594 C 1.683594 44.53125 0.3125 38.824219 0.921875 32.429688 C 1.53125 26.492188 4.121094 21.390625 8.695312 17.128906 C 13.417969 12.863281 18.976562 10.65625 25.375 10.503906 C 31.777344 10.503906 37.183594 12.5625 41.601562 16.671875 C 43.277344 15.453125 45.488281 13.703125 48.230469 11.417969 L 55.316406 5.253906 L 59.886719 1.597656 L 65.828125 0 L 102.625 0 C 105.214844 0 107.042969 0.53125 108.109375 1.597656 C 109.328125 2.96875 110.089844 5.785156 110.394531 10.046875 L 110.394531 16.441406 M 97.367188 49.101562 C 99.652344 55.34375 101.101562 62.652344 101.710938 71.023438 L 64.914062 71.023438 C 65.675781 61.128906 67.199219 53.820312 69.484375 49.101562 L 97.367188 49.101562 M 112.449219 49.101562 C 115.191406 49.558594 117.25 50.699219 118.621094 52.527344 L 122.964844 60.976562 L 125.933594 71.023438 L 106.964844 71.023438 C 106.507812 63.410156 105.0625 56.179688 102.625 49.328125 L 102.851562 49.101562 L 112.449219 49.101562 M 106.964844 76.277344 L 126.390625 76.277344 C 127.457031 82.0625 126.695312 89.371094 124.105469 98.199219 L 106.28125 98.199219 L 107.421875 87.46875 L 106.964844 76.277344 M 121.820312 103.683594 C 116.640625 116.167969 107.957031 124.617188 95.765625 129.03125 L 101.480469 117.15625 L 105.59375 103.683594 L 121.820312 103.683594 M 102.167969 87.46875 L 101.710938 98.199219 L 65.371094 98.199219 L 64.230469 87.46875 L 64.457031 76.277344 L 102.167969 76.277344 L 102.167969 87.46875 M 71.3125 120.125 C 69.332031 116.167969 67.582031 110.914062 66.058594 104.367188 L 65.828125 103.910156 L 66.058594 103.683594 L 100.109375 103.683594 L 95.082031 120.125 C 91.121094 128.042969 86.625 131.695312 81.597656 131.085938 C 77.941406 130.628906 74.511719 126.976562 71.3125 120.125 M 14.863281 23.523438 C 11.96875 26.261719 10.292969 29.613281 9.835938 33.570312 C 9.378906 38.289062 10.523438 42.25 13.265625 45.445312 C 16.007812 48.492188 19.738281 50.394531 24.460938 51.15625 L 27.890625 37.683594 C 29.414062 32.960938 31.242188 29.230469 33.375 26.492188 L 37.261719 32.199219 L 41.144531 37.683594 C 41.449219 32.199219 40.003906 27.710938 36.804688 24.207031 C 33.757812 21.011719 29.796875 19.488281 24.917969 19.640625 C 21.261719 19.792969 17.910156 21.085938 14.863281 23.523438 M 58.285156 49.101562 L 63.542969 49.101562 C 60.953125 56.710938 59.503906 64.019531 59.199219 71.023438 L 40.6875 71.023438 C 41.296875 66.914062 42.898438 62.195312 45.488281 56.863281 L 48.6875 52.070312 C 49.90625 50.394531 51.507812 49.40625 53.488281 49.101562 L 58.285156 49.101562 M 39.316406 87.695312 C 38.859375 83.28125 39.011719 79.472656 39.773438 76.277344 L 58.285156 76.277344 L 59.65625 98.199219 L 41.601562 98.199219 L 39.316406 87.695312 M 60.113281 103.683594 C 61.484375 112.511719 64.761719 120.960938 69.941406 129.03125 C 58.210938 124.921875 49.375 116.46875 43.429688 103.683594 L 60.113281 103.683594 "/>
</g>
</svg>

<svg xmlns="http://www.w3.org/2000/svg" width="128pt" height="176" viewBox="0 0 128 132"><path d="M110.395 16.441h-9.602l4.344 27.18H60.8l2.054-11.191-12.796.226q.457 10.734-4.34 17.36-4.118 5.705-12.801 9.132-3.2 13.02-3.656 30.832l-.684 5.25-2.289 2.97-2.512-.227-2.058-1.141-.684-3.883.227-5.254q0-11.418 1.828-27.406l-2.969-.91-2.973-.688Q9.606 56.18 5.035 49.56C1.684 44.53.313 38.824.922 32.429q.914-8.906 7.773-15.3 7.084-6.398 16.68-6.625c6.402 0 11.809 2.059 16.227 6.168q2.514-1.827 6.628-5.254l7.086-6.164 4.57-3.656L65.829 0h36.797q3.885-.001 5.484 1.598 1.828 2.056 2.286 8.449zm-13.028 32.66q3.429 9.365 4.344 21.922H64.914q1.143-14.843 4.57-21.921zm15.082 0q4.114.684 6.172 3.425l4.344 8.45 2.969 10.046h-18.97q-.683-11.418-4.339-21.695l.227-.226zm-5.484 27.175h19.426q1.599 8.679-2.286 21.922h-17.824l1.14-10.73zm14.855 27.407q-7.769 18.726-26.054 25.347l5.714-11.875 4.114-13.472zm-19.652-16.215-.457 10.73H65.37l-1.14-10.73.226-11.192h37.711zm-30.856 32.656q-2.97-5.936-5.253-15.758l-.23-.457.23-.226h34.05l-5.027 16.441q-5.942 11.876-13.484 10.96-5.486-.683-10.285-10.96m-56.45-96.602q-4.341 4.11-5.027 10.047-.685 7.081 3.43 11.875 4.112 4.57 11.195 5.711l3.43-13.472q2.285-7.085 5.484-11.192l3.887 5.707 3.883 5.485c.304-5.485-1.141-9.973-4.34-13.477q-4.57-4.794-11.887-4.566-5.484.227-10.055 3.882m43.422 25.579h5.258q-3.887 11.415-4.344 21.921H40.688q.914-6.163 4.8-14.16l3.2-4.793q1.829-2.512 4.8-2.968zM39.316 87.695q-.685-6.623.457-11.418h18.512L59.656 98.2H41.602zm20.797 15.989q2.058 13.242 9.828 25.347c-11.73-4.11-20.566-12.562-26.511-25.347z"/></svg>
